src/main/resources/img/object/trigger/TriggerErrDisabled_dark.svg

<svg width="16" height="16" version="1.1" viewBox="0 0 16 16"  xmlns="http://www.w3.org/2000/svg"><g><path d="m2 5v8h6.0391a4.5 4.5 0 0 1-0.039062-0.5 4.5 4.5 0 0 1 4.5-4.5 4.5 4.5 0 0 1 1.5 0.25977v-3.2598h-12z" fill="#f2f2f2"/><path d="m1 2v12h7.2617a4.5 4.5 0 0 1-0.21875-1h-2.043v-2h2.2617a4.5 4.5 0 0 1 0.51562-1h-2.7773v-2h4v0.77734a4.5 4.5 0 0 1 1-0.51562v-0.26172h1.5 1.5v0.25781a4.5 4.5 0 0 1 1 0.50195v-6.7598h-14zm1 3h3v2h-3v-2zm4 0h4v2h-4v-2zm5 0h3v2h-3v-2zm-9 3h3v2h-3v-2zm0 3h3v2h-3v-2z" fill="#afb1b3"/></g><g fill-rule="evenodd">
        <path d="m16 12.5c0 1.933-1.567 3.5-3.5 3.5s-3.5-1.567-3.5-3.5 1.567-3.5 3.5-3.5 3.5 1.567 3.5 3.5" fill="#b2b2b2"/>
        <path d="m13 14v1h-1v-1zm0-4v3h-1v-3z" fill="#fff"/>
    </g></svg>

<svg width="16" height="16" xmlns="http://www.w3.org/2000/svg"><path d="M2 5v8h6.04a4.5 4.5 0 0 1-.04-.5A4.5 4.5 0 0 1 12.5 8a4.5 4.5 0 0 1 1.5.26V5H2z" fill="#f2f2f2"/><path d="M1 2v12h7.262a4.5 4.5 0 0 1-.219-1H6v-2h2.262a4.5 4.5 0 0 1 .515-1H6V8h4v.777a4.5 4.5 0 0 1 1-.515V8h3v.258a4.5 4.5 0 0 1 1 .502V2H1zm1 3h3v2H2V5zm4 0h4v2H6V5zm5 0h3v2h-3V5zM2 8h3v2H2V8zm0 3h3v2H2v-2z" fill="#afb1b3"/><g fill-rule="evenodd"><path d="M16 12.5a3.5 3.5 0 1 1-7 0 3.5 3.5 0 0 1 7 0" fill="#b2b2b2"/><path d="M13 14v1h-1v-1zm0-4v3h-1v-3z" fill="#fff"/></g></svg>
